!!!!SEGMENT: pl-wtm--r-741-m--002_moniuszko-stanislaw--walc-a-dur.krn
!!!cenid: 18xx:1677
!!!COM: Moniuszko, Stanisław
!!!COM-rismid: pe30008351
!!!CDT: 1819/05/05-1872/06/04
!!!CNT: Polish
!!!OTL: Walc A-dur
!!!PDT: 1840
!!!AGN: Secular; Waltz
!!!SMS-siglum: PL-Wtm
!!!SMS-shelfmark: R 741/M
!!!SMS-shelfwork: 002 W
!!!SMS-variant:
!!!SMS-altvar:
!!!NIFC-rismid: 1001095995
!!!URL-scan: http://repozytorium.nifc.pl/skany/pl-wtm-nut--r741m
!!!ONB-nifc: N|o 2. Walc
**kern	**kern	**dynam
*part1	*part1	*part1
*staff2	*staff1	*
*Iforte	*Iempty	*
*I"[Fortepian]	*	*
*I'pf	*	*
*clefF4	*clefG2	*
*	*ok[f#cc#g#]	*
*k[f#c#g#]	*k[f#c#g#]	*
*A:	*A:	*
*M3/4	*M3/4	*
*>[A,B,B1,B,B2,C,A,D]	*>[A,B,B1,B,B2,C,A,D]	*
=1	=1	=1
*>A	*>A	*
*	*^	*
!LO:TX:t=P:problem:4\right:global	!	!	!
!LO:TX:t=P:problem:8\ 16\right or left:global	!LO:TX:t=P:problem:8\right or left:global	!	!
!	!LO:TX:a:i:t=Allegretto. 1 canto ben. marcato.	!	!
!LO:TX:t=[segno]	!LO:TX:t=[segno]	!LO:TX:t=[segno]	!
8AA/	8.cc#/L	8r	p
8r	.	8e\ 8a	.
.	16dd/Jk	.	.
8A\ 8c#	4ee/	8r	.
8r	.	8e\ 8a	.
8C#/	4ee/	8r	.
8r	.	8e\ 8a	.
=2	=2	=2	=2
!	!	!	!LO:HP:a
8EE/	8.ff#/L	8r	>
8r	.	8e\ 8g#	.
.	16ee/Jk	.	]
8B\ 8d	4b/	8r	.
8r	.	8e\ 8g#	.
8EE#X/	8.cc#/L	8r	.
8r	.	8c#\ 8g#	.
.	16b/Jk	.	.
=3	=3	=3	=3
.	8qb/	.	.
8FF#/	8.a/L	8r	.
8r	.	8c#\ 8f#	.
.	16g#/Jk	.	.
8F#\ 8A	4a/	8r	.
8r	.	8c#\ 8f#	.
8BBB/	4b/	8r	.
8r	.	8d#X\ 8f#	.
=4	=4	=4	=4
8EE/	8.g#/L	8r	.
8r	.	8B\ 8e	.
.	16a/Jk	.	.
8G#\ 8B	4b/	8r	.
8r	.	8e\ 8g#	.
8DD/	4b#X/	8r	.
8r	.	8f#\ 8g#	.
=5	=5	=5	=5
8CC#/	8.cc#/L	8r	.
8r	.	8e#X\ 8g#	.
.	16dd#X/Jk	.	.
8G#\ 8B	4ee#X/	8r	.
8r	.	8e#\ 8g#	.
8C#/	4ee#/	8r	.
8r	.	8e#\ 8g#	.
=6	=6	=6	=6
8FF#/	8.ff#/L	8r	.
8r	.	8a\ 8cc#	.
.	16gg#/Jk	.	.
!	!	!	!LO:HP:a
8c#\ 8f#	(<4aa/	8r	>
8r	.	8a\ 8cc#	.
8DD#X/	8.gg#/L	8r	.
8r	.	8a\ 8ccn	.
.	16ff#/Jk)	.	]]
!!LO:LB:g=original
=7	=7	=7	=7
8EE/	8.ee/L	8r	.
8r	.	8g#\ 8b	.
.	16dd#X/Jk	.	.
8G#\ 8B	4ddn^</	8r	.
8r	.	8d\ 8e	.
8EE/	4g#/	8r	.
8r	.	8B\ 8d	.
=8	=8	=8	=8
8AA/	8.a/L	8r	.
8r	.	8c#\ 8e	.
.	16a/Jk	.	.
8A\	4cc#/	8r	.
8r	.	8c#\ 8e	.
8AA/	4a/	8r	.
8r	.	8c#\ 8e	.
=9!|:	=9!|:	=9!|:	=9!|:
*>B	*>B	*>B	*
8EE/	8.g#/L	8r	.
8r	.	8B\ 8e	<
.	16a/Jk	.	.
8E/	4b/	8r	.
8r	.	8e\ 8g#	.
8D/	4b/	8r	.
8r	.	8fn\ 8gn	.
=10	=10	=10	=10
!LO:SIC:v:n=2:s=8CCn	!	!	!
8CC#/ 8Cn	8.ccn/L	8r	.
8r	.	8e\ 8gn	.
.	16dd/Jk	.	.
8c#\	4ee/	8r	.
8r	.	8e\ 8g	.
8B\	4ee/	8r	.
8r	.	8e\ 8g#X 8dd	.
=11	=11	=11	=11
.	8qffn/	.	.
8AA\ 8A	8.ee/L	8r	.
8r	.	8e\ 8a	.
.	16dd#X/Jk	.	.
8cn\	4ee/	8r	.
8r	.	8e\ 8a	[
8A\	4aa/	8r	.
8r	.	8ccn\ 8ee	.
=12	=12	=12	=12
8E\	8.gg#/L	8r	>
8r	.	8g#\ 8b	.
.	16ff#/Jk	.	.
8e\	4ee/	8r	.
8r	.	8g#\ 8b	.
8E\	4dd/	8r	.
8r	.	8g#\ 8b	] pp
=13	=13	=13	=13
(4B-X\	8.cc#/L	8r	.
.	.	8e\ 8gn	.
.	16dd/Jk	.	.
4A\	4ee/	8r	.
.	.	8a\ 8cc#	.
4Gn\	4ee/	8r	.
.	.	8e\ 8a 8cc#	.
!!LO:LB:g=original
=14	=14	=14	=14
4F#\	8.ff#/L	8r	.
.	.	8e\ 8a#X	.
.	16ee/Jk	.	.
4Fn\	4b/	8r	.
.	.	8d\ 8an	.
4E\)	8.cc#/L	8r	.
.	.	8d\ 8g#	.
.	16b/Jk	.	.
=15	=15	=15	=15
.	8qb/	.	.
!LO:SIC:v:n=2:s=4DD#	!	!	!
(4DD\ 4D#X	8.a/L	8r	.
.	.	8B#X\ 8f#	.
.	16g#/Jk	.	.
8EE\) 8E	4a/	8r	.
8r	.	8c#\ 8e	.
8G#\ 8B	8.b/L	8r	.
8r	.	8d\ 8e	.
.	16cc#/Jk	.	.
=16	=16	=16	=16
!LO:TX:t=1. Volta	!LO:TX:t=1. Volta	!LO:TX:t=1. Volta	!
*>B1	*>B1	*>B1	*
8AA\ 8A	4a/	8r	.
8r	.	8c#\ 8e	.
8G#\ 8B	(<8.cc#/L	8r	.
8r	.	8d\ 8e	.
.	16b/Jk	.	.
8AA\ 8A	4a/)	8r	.
8r	.	8c#\ 8e	.
=17:|!	=17:|!	=17:|!	=17:|!
!LO:TX:t=2da Volta	!LO:TX:t=2da Volta	!LO:TX:t=2da Volta	!
*>B2	*>B2	*>B2	*
8AA\ 8A	8.a/L	8r	.
8r	.	8c#\ 8e	.
.	16cc#/Jk	.	.
8EE/ 8E	4ee/	8r	.
8r	.	8e\ 8g# 8b	.
8AAA/ 8AA	(<4aa/	8r	.
8r	.	8a\ 8ccn	.
=18	=18	=18	=18
*>C	*>C	*>C	*
(4BBB/ 4BB	8.ggn/L	8r	.
.	.	8gn\ 8dd	.
.	16ffn/Jk)	.	.
!LO:SIC:v:n=2:s=4CCn	!	!	!
4CC#/ 4Cn	4ee/	8r	.
.	.	8g\ 8ccn	.
4DD/ 4D	(8.ee/L	8r	.
.	.	8fn\ 8b-X	.
.	16dd/Jk	.	.
=19	=19	=19	=19
8EE/) 8E	4ccn/)	8r	.
8r	.	8e\ 8a	.
(4E\ 4B	(8.ee/L	8r	.
.	.	8e\ 8g#	.
.	16b/Jk	.	.
8A\) 8cn	4cc/)	8r	.
8r	.	8e\ 8a	.
!!LO:LB:g=original
=20	=20	=20	=20
!	!	!	!LO:HP:b=2
(4E\ 4B	(8.ee/L	8r	>
.	.	8e\ 8g#	.
.	16b/K	.	.
4A\ 4cn	8.ccn/	8r	.
.	.	8e\	.
.	16a/K	.	.
8E\) 8B	8.ee/	8r	]
8r	.	8e\ 8g#	.
!LO:TX:t=[segno]	!LO:TX:t=[segno]	!LO:TX:t=[segno]	!
.	16b/Jk)	.	.
=21	=21	=21	=21
*>D	*>D	*>D	*
!	!LO:TX:a:t=DS. poi Coda	!	!
(4A\	4ccn/	8r	.
!	!	!LO:SIC:v:n=2:s=8cn	!
.	.	8c#\ 8e	.
4E\	(8.b/L	8r	.
.	.	8d\ 8g#	.
.	16cc/Jk	.	.
4Fn\	4a/)	8r	.
.	.	8A\ 8cn	.
=22	=22	=22	=22
4C#\)	(8.gn/L	8r	.
.	.	8A\ 8e	.
.	16a/Jk	.	.
(8.D\L	4fn/)	8r	.
.	.	8A\ 8d	.
16BB\Jk	.	.	.
4E\)	8.e/L	8r	.
.	.	8G#\ 8B	.
.	16e/Jk	.	.
=23	=23	=23	=23
8AA/	8e/	8r	.
!	!	!	!LO:HP:b=2
8r	8r	8A\ 8cn	>
8A\L	8a/	8r	.
16r	8r	8c\ 8e	.
(16Fn\K	.	.	.
8E\)	8ccn/	8r	.
16r	8r	8e\ 8a	.
(16Cn\Jk	.	.	.
=24	=24	=24	=24
8AA/)	8ee/	8r	.
8r	8r	8a\ 8ccn	.
8Cn/L	(<4e/	8r	.
16r	.	8A\ 8cn	.
(16AA/K	.	.	.
8EE/)	8a/)	8r	]
16r	8r	[8c\ [>8e	.
!LO:SIC:v:s=16CCn	!	!	!
(16CC#/Jk	.	.	.
=25	=25	=25	=25
2.AAA;/)	2.a;/	2c\] 2e]	.
.	.	4r	.
*	*v	*v	*
!!LO:PB:g=original
==	==	==
*-	*-	*-
!!!system-decoration: {(s1,s2)}
!!!RDF**kern: < = below
!!!RDF**kern: > = above
!!!ENC: Marta Chmielewska
!!!END: 2021-04-22
!!!ENC: Anastazja Marusiak
!!!END: 2021-03-31
